X:1
T:Go From My Window
M:4/4
L:1/8
K:G
 G2 GA B2 AA| G8| A2 AB c2 BB| A6 A2| A2 AB c2B-A| GA BG A2 D2| G2 GA B2 A2|\
 G8|
